svg/RightHanded/copy.svg

<?xml version="1.0" encoding="UTF-8" standalone="no"?>
<!-- Created with Inkscape (http://www.inkscape.org/) -->

<svg
   xmlns:dc="http://purl.org/dc/elements/1.1/"
   xmlns:cc="http://creativecommons.org/ns#"
   xmlns:rdf="http://www.w3.org/1999/02/22-rdf-syntax-ns#"
   xmlns:svg="http://www.w3.org/2000/svg"
   xmlns="http://www.w3.org/2000/svg"
   xmlns:xlink="http://www.w3.org/1999/xlink"
   version="1.0"
   width="500"
   height="500"
   viewBox="0 0 1000 1000"
   id="page"
   xml:space="preserve"><metadata
     id="metadata12"><rdf:RDF><cc:Work
         rdf:about=""><dc:format>image/svg+xml</dc:format><dc:type
           rdf:resource="http://purl.org/dc/dcmitype/StillImage" /><dc:title></dc:title></cc:Work></rdf:RDF></metadata><defs
     id="defs38"><linearGradient
       id="linearGradient1312"><stop
         id="stop1314"
         style="stop-color:#999999;stop-opacity:1"
         offset="0" /><stop
         id="stop1316"
         style="stop-color:#555555;stop-opacity:1"
         offset="1" /></linearGradient><linearGradient
       x1="423.00159"
       y1="197.1642"
       x2="423.00159"
       y2="577.15723"
       id="linearGradient5095"
       xlink:href="#linearGradient1312"
       gradientUnits="userSpaceOnUse" /><linearGradient
       x1="299.33881"
       y1="9.8939447"
       x2="299.33881"
       y2="519.69983"
       id="linearGradient5747"
       xlink:href="#linearGradient2218"
       gradientUnits="userSpaceOnUse"
       gradientTransform="translate(-102.3354,111.5471)" /><linearGradient
       id="linearGradient2218"><stop
         id="stop2220"
         style="stop-color:#999999;stop-opacity:1"
         offset="0" /><stop
         id="stop2222"
         style="stop-color:#555555;stop-opacity:1"
         offset="1" /></linearGradient><linearGradient
       x1="299.33881"
       y1="9.8939447"
       x2="299.33881"
       y2="519.69983"
       id="linearGradient4900"
       xlink:href="#linearGradient2218"
       gradientUnits="userSpaceOnUse"
       gradientTransform="translate(-102.33544,111.5471)" /><linearGradient
       x1="299.33881"
       y1="9.8939447"
       x2="299.33881"
       y2="519.69983"
       id="linearGradient4900-4"
       xlink:href="#linearGradient2218-1"
       gradientUnits="userSpaceOnUse"
       gradientTransform="translate(-835.38598,-546.00815)" /><linearGradient
       id="linearGradient2218-1"><stop
         id="stop2220-7"
         style="stop-color:#999999;stop-opacity:1"
         offset="0" /><stop
         id="stop2222-2"
         style="stop-color:#555555;stop-opacity:1"
         offset="1" /></linearGradient><linearGradient
       x1="423.00159"
       y1="197.1642"
       x2="423.00159"
       y2="577.15723"
       id="linearGradient5095-8"
       xlink:href="#linearGradient1312-5"
       gradientUnits="userSpaceOnUse"
       gradientTransform="translate(-733.05055,-657.55525)" /><linearGradient
       id="linearGradient1312-5"><stop
         id="stop1314-1"
         style="stop-color:#999999;stop-opacity:1"
         offset="0" /><stop
         id="stop1316-3"
         style="stop-color:#555555;stop-opacity:1"
         offset="1" /></linearGradient><linearGradient
       x1="299.33881"
       y1="9.8939447"
       x2="299.33881"
       y2="519.69983"
       id="linearGradient3074"
       xlink:href="#linearGradient2218-1"
       gradientUnits="userSpaceOnUse"
       gradientTransform="matrix(0.5,0,0,0.5,-51.167715,55.77355)" /><linearGradient
       x1="423.00159"
       y1="197.1642"
       x2="423.00159"
       y2="577.15723"
       id="linearGradient3076"
       xlink:href="#linearGradient1312-5"
       gradientUnits="userSpaceOnUse"
       gradientTransform="translate(-733.05055,-657.55525)" /><linearGradient
       x1="423.00159"
       y1="197.1642"
       x2="423.00159"
       y2="577.15723"
       id="linearGradient3080"
       xlink:href="#linearGradient1312-5"
       gradientUnits="userSpaceOnUse" /><filter
       x="-0.22029354"
       y="-0.26357856"
       width="1.440587"
       height="1.5271571"
       color-interpolation-filters="sRGB"
       id="filter3851"><feGaussianBlur
         id="feGaussianBlur3853"
         stdDeviation="26.895221" /></filter><linearGradient
       x1="299.33881"
       y1="9.8939447"
       x2="299.33881"
       y2="519.69983"
       id="linearGradient3855"
       xlink:href="#linearGradient2218"
       gradientUnits="userSpaceOnUse"
       gradientTransform="translate(-102.33544,111.5471)" /><linearGradient
       x1="423.00159"
       y1="197.1642"
       x2="423.00159"
       y2="577.15723"
       id="linearGradient3857"
       xlink:href="#linearGradient1312"
       gradientUnits="userSpaceOnUse" /><linearGradient
       x1="299.33881"
       y1="9.8939447"
       x2="299.33881"
       y2="519.69983"
       id="linearGradient3863"
       xlink:href="#linearGradient2218"
       gradientUnits="userSpaceOnUse"
       gradientTransform="translate(-102.33544,111.5471)" /></defs><path
     d="m 475.75,394.5 c -1.11596,-0.003 -1.94878,0.15779 -2.4375,0.5 -10.4255,7.3005 4.20423,183.52875 39.65625,189.78125 17.7265,3.1255 51.10575,-4.70825 58.40625,5.71875 7.3005,10.427 23.9615,45.34225 41.6875,48.46875 17.49565,3.0848 38.02551,-11.08715 41.5625,-28.5 5.93695,1.23236 12.10365,1.87563 18.40625,1.875 49.7075,0.003 90,-40.26575 90,-89.96875 0.005,-49.71053 -40.29605,-90.002 -90,-90 -25.14197,-0.002 -47.88962,10.2853 -64.21875,26.90625 C 566.40755,427.70111 491.49578,394.53903 475.75,394.5 z"
     transform="matrix(2.4,0,0,2.4,-979.66095,-744.32841)"
     id="path1431-5"
     style="opacity:0.15;fill:#111111;fill-opacity:1;stroke:none;filter:url(#filter3851)" /><path
     d="m 213.5912,132.44616 c 20.852,-14.60101 342.02804,133.42001 329.52604,204.32601 -6.252,35.454 -43.781,92.808 -29.182,113.661 14.601,20.852 68.83,76.108 62.578,111.562 -6.251,35.453 -47.955,64.654 -83.408,58.403 -35.452,-6.253 -68.83,-76.108 -83.431,-96.962 -14.601,-20.854 -81.333,-5.201 -116.786,-11.452 C 221.9842,499.47917 192.7402,147.04716 213.5912,132.44616 z"
     id="path1431"
     style="opacity:0.75;fill:url(#linearGradient3863);fill-opacity:1;stroke:#000000;stroke-width:20;stroke-linecap:round;stroke-linejoin:round;stroke-miterlimit:3.13260007" /><g
     id="g3006"
     style="opacity:0.75"><path
       d="m 792.9966,387.1652 c -0.004,99.406 -80.586,179.997 -180.001,179.992 -99.411,0.007 -179.995,-80.586 -179.994,-179.995 -0.002,-99.413 80.585,-180.004 180,-179.998 99.408,-0.004 180.004,80.58 179.995,180.001 z"
       id="path1439"
       style="fill:url(#linearGradient3857);fill-opacity:1;stroke:#000000;stroke-width:20;stroke-linecap:round;stroke-linejoin:round;stroke-miterlimit:3.13260007" /><path
       d="m 586.18747,408.65624 c 0,5.767 0,32.81365 0,40.96873 0,32.62032 4.20638,32.62498 25.375,32.625 16.9349,0 25.37502,-0.005 25.375,-32.625 0,-8.15552 5e-4,-29.21736 0,-40.74999 5.9879,0 33.90754,0 42.375,0 33.86981,0 33.87497,-4.0498 33.87499,-24.4375 0,-16.31016 -0.005,-24.5 -33.87499,-24.5 -8.46792,0 -30.4006,-4.6e-4 -42.375,0 0,-5.767 0,-32.5949 0,-40.75 0,-32.62031 -4.20638,-32.62499 -25.375,-32.62499 -16.9349,0 -25.37502,0.005 -25.375,32.62499 0,8.06752 -4.6e-4,28.70326 0,40.3125 -5.9879,0 -33.90754,0 -42.375,0 -33.8698,0 -33.875,4.0498 -33.875,24.4375 0,16.31016 0.005,24.5 33.875,24.5 8.46792,0 30.4006,0.2192 42.375,0.21876 z"
       id="path3390"
       style="fill:#000000;fill-opacity:1;stroke:#000000;stroke-width:5;stroke-linecap:round;stroke-linejoin:round;stroke-miterlimit:1.75;stroke-dasharray:none" /></g></svg>

<?xml version="1.0" encoding="UTF-8" standalone="no"?>
<!-- Created with Inkscape (http://www.inkscape.org/) -->
<svg
   xmlns:svg="http://www.w3.org/2000/svg"
   xmlns="http://www.w3.org/2000/svg"
   xmlns:xlink="http://www.w3.org/1999/xlink"
   version="1.0"
   width="500"
   height="500"
   viewBox="0 0 1000 1000"
   id="page"
   xml:space="preserve"><defs
     id="defs38"><linearGradient
       id="linearGradient1312"><stop
         id="stop1314"
         style="stop-color:#999999;stop-opacity:1"
         offset="0" /><stop
         id="stop1316"
         style="stop-color:#555555;stop-opacity:1"
         offset="1" /></linearGradient><linearGradient
       x1="423.00159"
       y1="197.1642"
       x2="423.00159"
       y2="577.15723"
       id="linearGradient5095"
       xlink:href="#linearGradient1312"
       gradientUnits="userSpaceOnUse" /></defs><path
     d="M 792.9966,387.1652 C 792.9926,486.5712 712.4106,567.1622 612.9956,567.1572 C 513.5846,567.1642 433.0006,486.5712 433.0016,387.1622 C 432.9996,287.7492 513.5866,207.1582 613.0016,207.1642 C 712.4096,207.1602 793.0056,287.7442 792.9966,387.1652 z"
     id="path1439"
     style="fill:url(#linearGradient5095);fill-opacity:1;stroke:#000000;stroke-width:20;stroke-linecap:round;stroke-linejoin:round;stroke-miterlimit:3.13260007" /><path
     d="M 586.18747,408.65624 C 586.18747,414.42324 586.18747,441.46989 586.18747,449.62497 C 586.18747,482.24529 590.39385,482.24995 611.56247,482.24997 C 628.49737,482.24997 636.93749,482.24529 636.93747,449.62497 C 636.93747,441.46945 636.93797,420.40761 636.93747,408.87498 C 642.92537,408.87498 670.84501,408.87498 679.31247,408.87498 C 713.18228,408.87498 713.18744,404.82518 713.18746,384.43748 C 713.18746,368.12732 713.18226,359.93748 679.31247,359.93748 C 670.84455,359.93748 648.91187,359.93702 636.93747,359.93748 C 636.93747,354.17048 636.93747,327.34258 636.93747,319.18748 C 636.93747,286.56717 632.73109,286.56249 611.56247,286.56249 C 594.62757,286.56249 586.18745,286.56719 586.18747,319.18748 C 586.18747,327.255 586.18701,347.89074 586.18747,359.49998 C 580.19957,359.49998 552.27993,359.49998 543.81247,359.49998 C 509.94267,359.49998 509.93747,363.54978 509.93747,383.93748 C 509.93747,400.24764 509.94267,408.43748 543.81247,408.43748 C 552.28039,408.43748 574.21307,408.65668 586.18747,408.65624 z"
     id="path3390"
     style="fill:#000000;fill-opacity:1;stroke:#000000;stroke-width:5;stroke-linecap:round;stroke-linejoin:round;stroke-miterlimit:1.75;stroke-dasharray:none" /></svg>
